assets/efishery/kolam-bundar.svg

<svg width="24" height="25" viewBox="0 0 24 25" fill="none" xmlns="http://www.w3.org/2000/svg">
<path fill-rule="evenodd" clip-rule="evenodd" d="M19.5029 6.5993C19.9466 6.86152 20.5 7.31842 20.5 8.02344V17.0234C20.5 17.7285 19.9466 18.1854 19.5029 18.4476C19.0091 18.7395 18.3444 18.9764 17.5888 19.1653C16.066 19.546 14.002 19.7734 11.75 19.7734C9.49801 19.7734 7.43404 19.546 5.91124 19.1653C5.15562 18.9764 4.49092 18.7395 3.99706 18.4476C3.55341 18.1854 3 17.7285 3 17.0234V8.02344C3 7.31842 3.55341 6.86152 3.99706 6.5993C4.49092 6.30739 5.15562 6.07052 5.91124 5.88162C7.43404 5.50092 9.49801 5.27344 11.75 5.27344C14.002 5.27344 16.066 5.50092 17.5888 5.88162C18.3444 6.07052 19.0091 6.30739 19.5029 6.5993ZM4.56602 8.02344C4.60757 8.05788 4.66938 8.10254 4.7603 8.15628C5.07609 8.34293 5.58296 8.53702 6.27505 8.71004C7.64769 9.0532 9.58371 9.27344 11.75 9.27344C13.9163 9.27344 15.8523 9.0532 17.225 8.71004C17.917 8.53702 18.4239 8.34293 18.7397 8.15628C18.8306 8.10254 18.8924 8.05787 18.934 8.02344C18.8924 7.989 18.8306 7.94434 18.7397 7.8906C18.4239 7.70395 17.917 7.50985 17.225 7.33683C15.8523 6.99367 13.9163 6.77344 11.75 6.77344C9.58371 6.77344 7.64769 6.99367 6.27505 7.33683C5.58296 7.50985 5.07609 7.70395 4.7603 7.8906C4.66938 7.94434 4.60757 7.989 4.56602 8.02344ZM19 9.70199V13.2821C17.9995 13.6338 16.7019 13.8836 15.25 14.0302V10.5778C16.1169 10.4754 16.9071 10.3357 17.5888 10.1653C18.1115 10.0346 18.5907 9.88092 19 9.70199ZM14.25 14.1133V10.6763C13.4581 10.7396 12.618 10.7734 11.75 10.7734C10.882 10.7734 10.0419 10.7396 9.25 10.6763V14.0857C10.1041 14.1485 10.9751 14.1822 11.8394 14.1857C12.6623 14.189 13.4723 14.1648 14.25 14.1133ZM9.25 15.0883C10.1073 15.1496 10.9766 15.1822 11.8354 15.1857C12.6499 15.1889 13.4615 15.166 14.25 15.1155V18.1712C13.4694 18.2372 12.6286 18.2734 11.75 18.2734C10.8714 18.2734 10.0306 18.2372 9.25 18.1712V15.0883ZM8.25 13.998V10.5778C7.62515 10.504 7.04019 10.4108 6.50697 10.3007C6.3004 10.258 6.10159 10.2128 5.91124 10.1653C5.39175 10.0354 4.91523 9.88284 4.50766 9.70533L4.5 9.70199V13.3656C5.61539 13.6475 6.89849 13.86 8.25 13.998ZM4.5 14.3954C5.63909 14.6679 6.91857 14.871 8.25 15.0031V18.0667C7.51061 17.9736 6.84437 17.8524 6.27505 17.71C5.58296 17.537 5.07609 17.3429 4.7603 17.1563C4.5953 17.0588 4.52617 16.9911 4.5 16.9602V14.3954ZM15.25 15.0352C16.6466 14.8991 17.9375 14.6689 19 14.3354V16.9602C18.9738 16.9911 18.9047 17.0587 18.7397 17.1563C18.4239 17.3429 17.917 17.537 17.225 17.71C16.6556 17.8524 15.9894 17.9736 15.25 18.0667V15.0352Z" fill="#1D1D1D"/>
</svg>

<svg viewBox="0 0 24 25" xmlns="http://www.w3.org/2000/svg">
  <path fill-rule="evenodd" clip-rule="evenodd" d="M19.503 6.6c.444.262.997.718.997 1.423v9c0 .706-.553 1.162-.997 1.425-.494.291-1.159.528-1.914.717-1.523.381-3.587.608-5.839.608-2.252 0-4.316-.227-5.839-.608-.755-.189-1.42-.425-1.914-.717-.444-.263-.997-.72-.997-1.425v-9c0-.705.553-1.161.997-1.424.494-.292 1.159-.528 1.914-.717 1.523-.381 3.587-.609 5.839-.609 2.252 0 4.316.228 5.839.609.755.189 1.42.425 1.914.717zM4.566 8.022c.042.035.103.08.194.133.316.187.823.381 1.515.554 1.373.343 3.309.563 5.475.563 2.166 0 4.102-.22 5.475-.563.692-.173 1.199-.367 1.515-.554.09-.053.152-.098.194-.133a1.513 1.513 0 0 0-.194-.132c-.316-.187-.823-.381-1.515-.554-1.373-.343-3.309-.564-5.475-.564-2.166 0-4.102.22-5.475.564-.692.173-1.199.367-1.515.554-.09.053-.152.098-.194.132zM19 9.702v3.58c-1 .352-2.298.602-3.75.748v-3.452a18.928 18.928 0 0 0 2.339-.413A9.052 9.052 0 0 0 19 9.702zm-4.75 4.411v-3.437c-.792.064-1.632.097-2.5.097-.868 0-1.708-.033-2.5-.097v3.41c.854.063 1.725.096 2.59.1.822.003 1.632-.021 2.41-.073zm-5 .975c.857.062 1.727.094 2.585.098.815.003 1.626-.02 2.415-.07v3.055c-.78.066-1.621.102-2.5.102s-1.72-.036-2.5-.102v-3.083zm-1-1.09v-3.42a20.651 20.651 0 0 1-1.743-.277 15.03 15.03 0 0 1-.596-.136 9.075 9.075 0 0 1-1.403-.46L4.5 9.702v3.664c1.115.282 2.398.494 3.75.632zm-3.75.397c1.14.273 2.419.476 3.75.608v3.064a17.005 17.005 0 0 1-1.975-.357c-.692-.173-1.199-.367-1.515-.554a1.033 1.033 0 0 1-.26-.196v-2.565zm10.75.64c1.397-.136 2.688-.366 3.75-.7v2.625c-.026.031-.095.099-.26.196-.316.187-.823.381-1.515.554-.57.142-1.236.264-1.975.357v-3.032z"/>
</svg>
